; generated by PrusaSlicer 2.6.1+win64 on 2024-03-15 at 15:08:21 UTC


;
;

;
;

;
;

;
;
; 

; external perimeters extrusion width = 0.45mm
; perimeters extrusion width = 0.45mm
; infill extrusion width = 0.45mm
; solid infill extrusion width = 0.45mm
; top infill extrusion width = 0.42mm
; first layer extrusion width = 0.50mm

M73 P0 R171
M201 X4000 Y4000 Z200 E2500 ; sets maximum accelerations, mm/sec^2
M203 X300 Y300 Z40 E100 ; sets maximum feedrates, mm / sec
M204 P4000 R1200 T4000 ; sets acceleration (P, T) and retract acceleration (R), mm/sec^2
M205 X8.00 Y8.00 Z2.00 E10.00 ; sets the jerk limits, mm/sec
M205 S0 T0 ; sets the minimum extruding and travel feed rate, mm/sec
;TYPE:Custom
M17 ; enable steppers
M862.1 P0.4 ; nozzle diameter check
M862.3 P "MK4" ; printer model check
M862.5 P2 ; g-code level check
M862.6 P"Input shaper" ; FW feature check
M115 U5.0.0+12061

M555 X62.6807 Y38.7981 W124.639 H128.404

G90 ; use absolute coordinates
M83 ; extruder relative mode

M140 S85 ; set bed temp
M104 T0 S195 ; set extruder temp for bed leveling
M109 T0 R195 ; wait for temp

M84 E ; turn off E motor

G28 ; home all without mesh bed level

G1 X42 Y-4 Z5 F4800

M302 S160 ; lower cold extrusion limit to 160C


G1 E-2 F2400 ; retraction


M84 E ; turn off E motor

G29 P9 X10 Y-4 W32 H4



G0 Z40 F10000

M190 S85 ; wait for bed temp

M107

;
; MBL
;
M84 E ; turn off E motor
G29 P1 ; invalidate mbl & probe print area
G29 P1 X0 Y0 W50 H20 C ; probe near purge place
G29 P3.2 ; interpolate mbl probes
G29 P3.13 ; extrapolate mbl outside probe area
G29 A ; activate mbl

; prepare for purge
M104 S240
G0 X0 Y-4 Z15 F4800 ; move away and ready for the purge
M109 S240

G92 E0
M569 S0 E ; set spreadcycle mode for extruder

;
; Extrude purge line
;
G92 E0 ; reset extruder position
G1 E2 F2400 ; deretraction after the initial one before nozzle cleaning
G0 E7 X15 Z0.2 F500 ; purge
G0 X25 E4 F500 ; purge
G0 X35 E4 F650 ; purge
G0 X45 E4 F800 ; purge
G0 X48 Z0.05 F8000 ; wipe, move close to the bed
G0 X51 Z0.2 F8000 ; wipe, move quickly away from the bed

G92 E0
M221 S100 ; set flow to 100%
G21 ; set units to millimeters
G90 ; use absolute coordinates
M83 ; use relative distances for extrusion
M900 K0.07 ; Filament gcode


M572 S0.055 ; Filament gcode


M142 S36 ; set heatbreak target temp
M107
;LAYER_CHANGE
;Z:0.2
;HEIGHT:0.2
;BEFORE_LAYER_CHANGE
G92 E0.0
;0.2
M201 X4000 Y4000
M74 W0

G1 E-.8 F2100
G1 Z.2 F720
;AFTER_LAYER_CHANGE
;0.2
; printing object sensorPodClamp2.obj id:0 copy 0
G1 Z.4
M204 T4000
G1 X169.705 Y44.167 F18000
G1 Z.2 F720
G1 E.8 F2100
M204 P500
;TYPE:Perimeter
;WIDTH:0.499999
G1 F2400
G1 X171.837 Y44.739 E.08389
G1 X173.898 Y45.53 E.0839
G1 X175.865 Y46.532 E.0839
G1 X177.717 Y47.735 E.08393
G1 X179.432 Y49.124 E.08388
G1 X180.993 Y50.685 E.0839
G1 X182.383 Y52.401 E.08393
G1 X183.585 Y54.252 E.08388
G1 X184.587 Y56.219 E.0839
G1 X185.379 Y58.28 E.08392
G1 X185.95 Y60.413 E.08392
G1 X186.295 Y62.593 E.08388
G1 X186.412 Y65.035 E.09292
G1 X186.412 Y145.178 E3.04594
G1 X186.295 Y147.407 E.08483
G1 X185.95 Y149.587 E.08388
G1 X185.379 Y151.72 E.08392
G1 X184.588 Y153.781 E.0839
G1 X183.585 Y155.748 E.08392
G1 X182.383 Y157.599 E.08388
G1 X180.993 Y159.315 E.08393
G1 X179.432 Y160.876 E.0839
G1 X177.717 Y162.265 E.08388
G1 X175.865 Y163.468 E.08393
G1 X173.898 Y164.47 E.0839
G1 X171.837 Y165.261 E.0839
G1 X169.705 Y165.833 E.08389
G1 X167.524 Y166.178 E.08392
G1 X165.296 Y166.295 E.08479
G1 X84.704 Y166.295 E3.063
G1 X82.476 Y166.178 E.08479
G1 X80.295 Y165.833 E.08392
G1 X78.163 Y165.261 E.08389
G1 X76.102 Y164.47 E.0839
G1 X74.135 Y163.468 E.0839
G1 X72.283 Y162.265 E.08393
G1 X70.568 Y160.876 E.08388
G1 X69.007 Y159.315 E.0839
G1 X67.617 Y157.599 E.08393
G1 X66.415 Y155.748 E.08388
G1 X65.413 Y153.781 E.0839
G1 X64.621 Y151.72 E.08392
G1 X64.05 Y149.587 E.08392
G1 X63.705 Y147.407 E.08388
G1 X63.588 Y145.178 E.08483
G1 X63.588 Y64.822 E3.05403
G1 X63.705 Y62.593 E.08483
G1 X64.05 Y60.413 E.08388
G1 X64.621 Y58.28 E.08392
G1 X65.413 Y56.219 E.08392
G1 X66.415 Y54.252 E.0839
G1 X67.617 Y52.401 E.08388
G1 X69.007 Y50.685 E.08393
G1 X70.568 Y49.124 E.0839
G1 X72.283 Y47.735 E.08388
G1 X74.135 Y46.532 E.08393
G1 X76.102 Y45.53 E.0839
G1 X78.163 Y44.739 E.0839
G1 X80.295 Y44.167 E.08389
G1 X82.476 Y43.822 E.08392
G1 X84.704 Y43.705 E.08479
G1 X165.296 Y43.705 E3.063
G1 X167.524 Y43.822 E.08479
G1 X169.645 Y44.158 E.08162
M204 P2500
G1 X169.8 Y43.72 F18000
M204 P500
;TYPE:External perimeter
G1 F2400
G1 X171.978 Y44.303 E.08569
G1 X174.084 Y45.112 E.08574
G1 X176.094 Y46.136 E.08573
G1 X177.986 Y47.364 E.08573
G1 X179.739 Y48.784 E.08574
G1 X181.334 Y50.379 E.08573
G1 X182.753 Y52.132 E.08572
G1 X183.982 Y54.023 E.08572
G1 X185.006 Y56.033 E.08573
G1 X185.814 Y58.139 E.08573
G1 X186.398 Y60.318 E.08574
G1 X186.751 Y62.545 E.0857
G1 X186.869 Y65.035 E.09474
G1 X186.869 Y145.19 E3.04639
G1 X186.751 Y147.455 E.0862
G1 X186.398 Y149.682 E.0857
G1 X185.814 Y151.861 E.08574
G1 X185.006 Y153.967 E.08573
G1 X183.982 Y155.977 E.08573
G1 X182.753 Y157.868 E.08572
G1 X181.334 Y159.621 E.08572
G1 X179.739 Y161.216 E.08573
G1 X177.986 Y162.636 E.08574
G1 X176.094 Y163.864 E.08573
G1 X174.084 Y164.888 E.08573
G1 X171.978 Y165.697 E.08574
G1 X169.8 Y166.28 E.08569
G1 X167.572 Y166.633 E.08573
G1 X165.308 Y166.752 E.08616
G1 X84.693 Y166.752 E3.06388
G1 X82.428 Y166.633 E.0862
G1 X80.2 Y166.28 E.08573
G1 X78.022 Y165.697 E.08569
G1 X75.916 Y164.888 E.08574
G1 X73.906 Y163.864 E.08573
G1 X72.014 Y162.636 E.08573
G1 X70.261 Y161.216 E.08574
G1 X68.666 Y159.621 E.08573
G1 X67.247 Y157.868 E.08572
G1 X66.018 Y155.977 E.08572
G1 X64.994 Y153.967 E.08573
G1 X64.186 Y151.861 E.08573
G1 X63.602 Y149.682 E.08574
G1 X63.249 Y147.455 E.0857
G1 X63.131 Y145.19 E.0862
G1 X63.131 Y64.81 E3.05494
G1 X63.249 Y62.545 E.0862
G1 X63.602 Y60.318 E.0857
G1 X64.186 Y58.139 E.08574
G1 X64.994 Y56.033 E.08573
G1 X66.018 Y54.023 E.08573
G1 X67.247 Y52.132 E.08572
G1 X68.666 Y50.379 E.08572
G1 X70.261 Y48.784 E.08573
G1 X72.014 Y47.364 E.08574
G1 X73.906 Y46.136 E.08573
G1 X75.916 Y45.112 E.08573
G1 X78.022 Y44.303 E.08574
G1 X80.2 Y43.72 E.08569
G1 X82.428 Y43.367 E.08573
G1 X84.692 Y43.248 E.08616
G1 X165.308 Y43.248 E3.06391
G1 X167.572 Y43.367 E.08616
G1 X169.74 Y43.71 E.08342
M204 P2500
G1 X169.923 Y44.1 F18000
G1 E-.16 F2100
;WIPE_START
G1 F14400
G1 X171.978 Y44.303 E-.32076
G1 X174.084 Y45.112 E-.31256
G1 X174.127 Y45.134 E-.00668
;WIPE_END
G1 Z.4 F720
G1 X76.825 Y135.399 F18000
G1 Z.2 F720
G1 E.8 F2100
M204 P500
;TYPE:Perimeter
G1 F2400
G1 X76.449 Y133.008 E.09199
G1 X76.327 Y130.655 E.08955
G1 X76.327 Y79.345 E1.9501
G1 X76.456 Y76.921 E.09226
G1 X76.82 Y74.624 E.08839
G1 X77.437 Y72.307 E.09113
G1 X78.293 Y70.067 E.09114
G1 X79.378 Y67.929 E.09112
G1 X80.681 Y65.916 E.09114
G1 X82.187 Y64.05 E.09114
G1 X83.88 Y62.352 E.09113
G1 X85.74 Y60.84 E.0911
G1 X87.749 Y59.531 E.09113
G1 X88.61 Y59.088 E.0368
G1 X89.949 Y58.41 E.05704
G1 X92.121 Y57.577 E.08841
G1 X94.436 Y56.953 E.09112
G1 X96.875 Y56.566 E.09386
G1 X99.228 Y56.444 E.08955
G1 X150.772 Y56.444 E1.959
G1 X153.125 Y56.566 E.08955
G1 X155.494 Y56.938 E.09114
G1 X157.811 Y57.555 E.09113
G1 X160.051 Y58.41 E.09112
G1 X162.189 Y59.495 E.09112
G1 X164.201 Y60.798 E.0911
G1 X166.067 Y62.304 E.09114
G1 X167.765 Y63.997 E.09113
G1 X169.277 Y65.858 E.09113
G1 X170.586 Y67.867 E.09113
G1 X171.707 Y70.067 E.09384
G1 X172.541 Y72.238 E.08839
G1 X173.165 Y74.553 E.09112
G1 X173.551 Y76.992 E.09385
G1 X173.673 Y79.345 E.08955
G1 X173.673 Y130.655 E1.9501
G1 X173.551 Y133.008 E.08955
G1 X173.18 Y135.376 E.0911
G1 X172.563 Y137.693 E.09113
G1 X171.707 Y139.933 E.09114
G1 X170.622 Y142.071 E.09112
G1 X169.319 Y144.084 E.09114
G1 X167.813 Y145.95 E.09114
G1 X166.121 Y147.648 E.0911
G1 X164.26 Y149.16 E.09113
M73 P0 R170
G1 X162.251 Y150.469 E.09113
G1 X161.39 Y150.912 E.0368
G1 X160.051 Y151.59 E.05704
G1 X157.879 Y152.423 E.08841
G1 X155.564 Y153.047 E.09112
G1 X153.125 Y153.434 E.09386
G1 X150.772 Y153.556 E.08955
G1 X99.228 Y153.556 E1.959
G1 X96.804 Y153.426 E.09226
G1 X94.506 Y153.062 E.08843
G1 X92.189 Y152.445 E.09113
G1 X89.949 Y151.59 E.09112
G1 X87.749 Y150.469 E.09384
G1 X85.799 Y149.202 E.08838
G1 X83.933 Y147.696 E.09114
G1 X82.235 Y146.003 E.09113
G1 X81.645 Y145.281 E.03544
G1 X80.723 Y144.142 E.05569
G1 X79.414 Y142.133 E.09113
G1 X78.293 Y139.933 E.09384
G1 X77.459 Y137.762 E.08839
G1 X76.838 Y135.458 E.09069
M204 P2500
G1 X77.27 Y135.296 F18000
M204 P500
;TYPE:External perimeter
G1 F2400
G1 X76.905 Y132.984 E.08896
G1 X76.784 Y130.655 E.08864
G1 X76.784 Y79.345 E1.9501
G1 X76.908 Y76.992 E.08955
G1 X77.272 Y74.695 E.08839
G1 X77.879 Y72.425 E.08931
G1 X78.72 Y70.231 E.0893
G1 X79.785 Y68.136 E.08932
G1 X81.064 Y66.165 E.0893
G1 X82.542 Y64.338 E.08931
G1 X84.203 Y62.675 E.08933
G1 X86.028 Y61.196 E.08928
G1 X87.998 Y59.915 E.08931
G1 X88.818 Y59.496 E.035
G1 X90.113 Y58.837 E.05522
G1 X92.285 Y58.003 E.08843
G1 X94.554 Y57.394 E.08929
G1 X96.899 Y57.023 E.09023
G1 X99.228 Y56.901 E.08864
G1 X150.772 Y56.901 E1.959
G1 X153.101 Y57.023 E.08864
G1 X155.422 Y57.389 E.0893
G1 X157.692 Y57.996 E.08931
G1 X159.887 Y58.837 E.08934
G1 X161.981 Y59.903 E.0893
G1 X163.953 Y61.182 E.08933
G1 X165.78 Y62.659 E.08929
G1 X167.442 Y64.32 E.0893
G1 X168.922 Y66.146 E.08933
G1 X170.203 Y68.116 E.08931
G1 X171.28 Y70.231 E.09021
G1 X172.114 Y72.402 E.08839
G1 X172.723 Y74.672 E.08933
G1 X173.095 Y77.016 E.0902
G1 X173.216 Y79.345 E.08864
G1 X173.216 Y130.655 E1.9501
G1 X173.095 Y132.984 E.08864
G1 X172.728 Y135.305 E.08931
G1 X172.121 Y137.575 E.08931
G1 X171.28 Y139.769 E.0893
G1 X170.215 Y141.864 E.08932
G1 X168.936 Y143.835 E.0893
G1 X167.458 Y145.662 E.08931
G1 X165.797 Y147.325 E.08933
G1 X163.972 Y148.804 E.08928
G1 X162.002 Y150.085 E.08931
G1 X161.182 Y150.504 E.035
G1 X159.887 Y151.163 E.05522
G1 X157.715 Y151.997 E.08843
G1 X155.446 Y152.606 E.08929
G1 X153.101 Y152.977 E.09023
G1 X150.772 Y153.099 E.08864
G1 X99.228 Y153.099 E1.959
G1 X96.875 Y152.975 E.08955
G1 X94.578 Y152.611 E.08839
G1 X92.308 Y152.004 E.08931
G1 X90.113 Y151.163 E.08934
G1 X87.998 Y150.085 E.09022
G1 X86.047 Y148.818 E.08841
G1 X84.22 Y147.341 E.08929
G1 X82.558 Y145.68 E.0893
G1 X82.001 Y144.994 E.03358
G1 X81.078 Y143.854 E.05575
G1 X79.797 Y141.884 E.08931
G1 X78.72 Y139.769 E.09021
G1 X77.886 Y137.598 E.08839
G1 X77.284 Y135.354 E.0883
M204 P2500
G1 X76.89 Y135.172 F18000
G1 E-.16 F2100
;WIPE_START
G1 F14400
G1 X76.905 Y132.984 E-.33252
G1 X76.79 Y130.768 E-.30748
;WIPE_END
G1 Z.4 F720
G1 X177.777 Y48.019 F18000
G1 Z.2 F720
G1 E.8 F2100
M204 P500
;TYPE:Solid infill
;WIDTH:0.500801
G1 F2400
G1 X180.707 Y50.949 E.15776
G1 X182.068 Y52.629 E.08232
G1 X182.675 Y53.565 E.04247
G1 X176.553 Y47.442 E.32966
G1 X175.671 Y46.869 E.04004
G1 X174.981 Y46.518 E.02947
G1 X183.6 Y55.136 E.46405
G1 X184.256 Y56.44 E.05558
G1 X173.677 Y45.861 E.56961
G1 X172.626 Y45.458 E.04286
G1 X184.66 Y57.491 E.64792
G1 X185.009 Y58.401 E.03711
G1 X185.041 Y58.52 E.00469
G1 X171.597 Y45.077 E.72384
G1 X170.713 Y44.84 E.03485
G1 X185.278 Y59.404 E.7842
G1 X185.515 Y60.289 E.03488
G1 X169.828 Y44.603 E.84461
G1 X169.624 Y44.548 E.00804
G1 X169.032 Y44.454 E.02282
G1 X185.663 Y61.085 E.89547
G1 X185.785 Y61.855 E.02968
G1 X168.263 Y44.332 E.94347
G1 X167.493 Y44.21 E.02968
G1 X185.907 Y62.624 E.99147
G1 X185.944 Y63.308 E.02608
G1 X166.809 Y44.174 E1.03026
G1 X166.126 Y44.138 E.02604
G1 X185.98 Y63.992 E1.069
G1 X186.015 Y64.675 E.02604
G1 X165.442 Y44.102 E1.10772
G1 X164.787 Y44.094 E.02494
G1 X186.024 Y65.331 E1.14347
G1 X186.024 Y65.978 E.02463
G1 X164.139 Y44.094 E1.17833
G1 X163.491 Y44.094 E.02467
G1 X186.024 Y66.626 E1.21322
G1 X186.024 Y67.273 E.02463
G1 X162.844 Y44.094 E1.24806
G1 X162.196 Y44.094 E.02467
G1 X186.024 Y67.921 E1.28295
G1 X186.024 Y68.569 E.02467
G1 X161.549 Y44.094 E1.31781
G1 X160.901 Y44.094 E.02467
G1 X186.024 Y69.216 E1.35268
G1 X186.024 Y69.864 E.02467
G1 X160.254 Y44.094 E1.38754
G1 X159.606 Y44.094 E.02467
G1 X186.024 Y70.511 E1.42241
G1 X186.024 Y71.159 E.02467
G1 X158.959 Y44.094 E1.45727
G1 X158.311 Y44.094 E.02467
G1 X186.024 Y71.806 E1.49213
G1 X186.024 Y72.454 E.02467
G1 X157.664 Y44.094 E1.527
G1 X157.016 Y44.094 E.02467
G1 X186.024 Y73.101 E1.56186
G1 X186.024 Y73.749 E.02467
G1 X156.368 Y44.094 E1.59675
G1 X155.721 Y44.094 E.02463
G1 X186.024 Y74.396 E1.63159
G1 X186.024 Y75.044 E.02467
G1 X155.073 Y44.094 E1.66648
G1 X154.426 Y44.094 E.02463
G1 X186.024 Y75.692 E1.70134
G1 X186.024 Y76.339 E.02463
G1 X153.778 Y44.094 E1.7362
G1 X153.131 Y44.094 E.02463
G1 X186.024 Y76.987 E1.77107
G1 X186.024 Y77.634 E.02463
G1 X152.483 Y44.094 E1.80593
G1 X151.836 Y44.094 E.02463
G1 X186.024 Y78.282 E1.84079
G1 X186.024 Y78.929 E.02463
G1 X151.188 Y44.094 E1.87566
G1 X150.541 Y44.094 E.02463
G1 X186.024 Y79.577 E1.91052
G1 X186.024 Y80.224 E.02463
G1 X149.893 Y44.094 E1.94539
G1 X149.246 Y44.094 E.02463
G1 X186.024 Y80.872 E1.98025
G1 X186.024 Y81.519 E.02463
G1 X148.598 Y44.094 E2.01511
G1 X147.95 Y44.094 E.02467
G1 X164.188 Y60.332 E.87431
G1 X164.498 Y60.533 E.01407
G1 X166.344 Y62.029 E.09046
G1 X168.088 Y63.773 E.0939
G1 X169.641 Y65.698 E.09417
G1 X169.799 Y65.942 E.01107
G1 X186.024 Y82.167 E.87361
G1 X186.024 Y82.814 E.02463
G1 X170.975 Y67.766 E.81026
G1 X171.64 Y69.079 E.05604
G1 X186.024 Y83.462 E.77446
G1 X186.024 Y84.11 E.02467
G1 X172.212 Y70.298 E.74368
G1 X172.615 Y71.349 E.04286
G1 X186.024 Y84.757 E.72196
G1 X186.024 Y85.405 E.02467
G1 X172.972 Y72.353 E.70276
G1 X173.209 Y73.238 E.03488
G1 X186.024 Y86.052 E.68997
G1 X186.024 Y86.7 E.02467
G1 X173.446 Y74.122 E.67724
G1 X173.562 Y74.555 E.01707
G1 X173.623 Y74.947 E.0151
G1 X186.024 Y87.347 E.66768
G1 X186.024 Y87.995 E.02467
G1 X173.743 Y75.715 E.66122
G1 X173.863 Y76.482 E.02956
G1 X186.024 Y88.642 E.65476
G1 X186.024 Y89.29 E.02467
G1 X173.952 Y77.218 E.65
G1 X173.987 Y77.901 E.02604
G1 X186.024 Y89.937 E.64808
G1 X186.024 Y90.585 E.02467
G1 X174.023 Y78.584 E.64617
G1 X174.058 Y79.267 E.02604
G1 X186.024 Y91.233 E.64429
G1 X186.024 Y91.88 E.02463
G1 X174.062 Y79.918 E.64407
G1 X174.062 Y80.566 E.02467
G1 X186.024 Y92.528 E.64407
G1 X186.024 Y93.175 E.02463
G1 X174.062 Y81.213 E.64407
G1 X174.062 Y81.861 E.02467
G1 X186.024 Y93.823 E.64407
G1 X186.024 Y94.47 E.02463
G1 X174.062 Y82.509 E.64405
G1 X174.062 Y83.156 E.02463
G1 X186.024 Y95.118 E.64407
G1 X186.024 Y95.765 E.02463
M73 P0 R169
G1 X174.062 Y83.804 E.64405
G1 X174.062 Y84.451 E.02463
G1 X186.024 Y96.413 E.64407
G1 X186.024 Y97.06 E.02463
G1 X174.062 Y85.099 E.64405
G1 X174.062 Y85.746 E.02463
G1 X186.024 Y97.708 E.64407
G1 X186.024 Y98.355 E.02463
G1 X174.062 Y86.394 E.64405
G1 X174.062 Y87.041 E.02463
G1 X186.024 Y99.003 E.64407
G1 X186.024 Y99.651 E.02467
G1 X174.062 Y87.689 E.64407
G1 X174.062 Y88.336 E.02463
G1 X186.024 Y100.298 E.64407
G1 X186.024 Y100.946 E.02467
G1 X174.062 Y88.984 E.64407
G1 X174.062 Y89.631 E.02463
M73 P1 R169
G1 X186.024 Y101.593 E.64407
G1 X186.024 Y102.241 E.02467
G1 X174.062 Y90.279 E.64407
G1 X174.062 Y90.927 E.02467
G1 X186.024 Y102.888 E.64405
G1 X186.024 Y103.536 E.02467
G1 X174.062 Y91.574 E.64407
G1 X174.062 Y92.222 E.02467
G1 X186.024 Y104.183 E.64405
G1 X186.024 Y104.831 E.02467
G1 X174.062 Y92.869 E.64407
G1 X174.062 Y93.517 E.02467
G1 X186.024 Y105.478 E.64405
G1 X186.024 Y106.126 E.02467
G1 X174.062 Y94.164 E.64407
G1 X174.062 Y94.812 E.02467
G1 X186.024 Y106.774 E.64407
G1 X186.024 Y107.421 E.02463
G1 X174.062 Y95.459 E.64407
G1 X174.062 Y96.107 E.02467
G1 X186.024 Y108.069 E.64407
G1 X186.024 Y108.716 E.02463
G1 X174.062 Y96.754 E.64407
G1 X174.062 Y97.402 E.02467
G1 X186.024 Y109.364 E.64407
G1 X186.024 Y110.011 E.02463
G1 X174.062 Y98.05 E.64405
G1 X174.062 Y98.697 E.02463
G1 X186.024 Y110.659 E.64407
G1 X186.024 Y111.306 E.02463
G1 X174.062 Y99.345 E.64405
G1 X174.062 Y99.992 E.02463
G1 X186.024 Y111.954 E.64407
G1 X186.024 Y112.601 E.02463
G1 X174.062 Y100.64 E.64405
G1 X174.062 Y101.287 E.02463
G1 X186.024 Y113.249 E.64407
G1 X186.024 Y113.896 E.02463
G1 X174.062 Y101.935 E.64405
G1 X174.062 Y102.582 E.02463
